X:1
T:Ave Verum Corpus, CMD
T:William Henry Monk, 1889
T:Ave Verum Corpus, CMD
T:Public Domain
C:William Henry Monk, 1889
Z:Public Domain
%%score ( 1 2 ) ( 3 4 )
L:1/8
M:none
K:F
V:1 treble 
V:2 treble 
V:3 bass 
V:4 bass 
V:1
 [FA]2 | [FB]2 [Fd]2 [Fc]2 [FA]2 | [EG]3 F F2 [CG]2 | [FA]2 [FB]2 [Fc]2 [Fd]2 | (F2 E4) [FA]2 | %5
 [FB]2 [FA]2 [EG]2 [DF]2 | [^CE]3 D D2 [CE]2 | [DF]2 [EG]2 [FA]2 [F=B]2 | (F2 E4) [_Ec]2 | %9
 [_Ec]2 [Gc]2 [GB]2 [GA]2 | [^FA]3 [GB] [GB]2 [GB]2 | [Gc]3 [GB] [FA]2 [DG]2 | [EA]6 [EG]2 | %13
 [DF]2 [EG]2 [FA]2 [FB]2 | [Fc]2 [Dd]2 [EG]2 [^FA]2 | [GB]3 [GB] [FA]2 [EG]2 | F6 |] %17
V:2
 x2 | x8 | x3 F F2 x2 | x8 | G6 x2 | x8 | x3 D D2 x2 | x8 | c6 x2 | x8 | x8 | x8 | x8 | x8 | x8 | %15
 x8 | F6 |] %17
V:3
 [F,C]2 | [F,D]2 [F,B,]2 [F,A,]2 [F,C]2 | [C,B,]3 [D,A,] [D,A,]2 [E,C]2 | %3
 [F,C]2 [D,B,]2 [A,,A,]2 [B,,G,]2 | [C,C]6 [F,C]2 | [F,D]2 [F,C]2 [C,B,]2 [D,A,]2 | %6
 [A,,G,]3 [B,,F,] [B,,F,]2 [A,,A,]2 | [D,A,]2 [C,C]2 [F,C]2 [D,G,]2 | [C,G,]6 [C,G,]2 | %9
 [C,G,]2 [C,_E]2 [D,D]2 [_E,C]2 | [D,D]3 [G,D] [G,D]2 [F,D]2 | C2 z E, [F,C]2 [B,D]2 | %12
 [A,^C]6 [^C,A,]2 | [D,A,]2 [C,C]2 [F,C]2 [D,B,]2 | [A,,A,]2 [B,,F,]2 [C,C]2 [A,C]2 | %15
 G,2 z D [C,C]2 [C,B,]2 | [F,A,]6 |] %17
V:4
 x2 | x8 | x8 | x8 | x8 | x8 | x8 | x8 | x8 | x8 | x8 | E,3 C2 x3 | x8 | x8 | x8 | D3 B,,2 x3 | %16
 x6 |] %17

